; G-Code generated by Simplify3D(R) Version 4.0.1
; Mar 23, 2020 at 8:07:33 PM
; Settings Summary
;   processName,Process1
;   applyToModels,FaceShieldRamon_v6_2unidades
;   profileName,Sethi_AiP (modified)
;   profileVersion,2020-03-22 12:26:04
;   baseProfile,AiP
;   printMaterial,PLA
;   printQuality,Layer 0,2mm
;   printExtruders,
;   extruderName,Primary Extruder
;   extruderToolheadNumber,0
;   extruderDiameter,0.4
;   extruderAutoWidth,1
;   extruderWidth,0.48
;   extrusionMultiplier,0.9
;   extruderUseRetract,1
;   extruderRetractionDistance,10
;   extruderExtraRestartDistance,0
;   extruderRetractionZLift,0.2
;   extruderRetractionSpeed,4200
;   extruderUseCoasting,1
;   extruderCoastingDistance,0.2
;   extruderUseWipe,1
;   extruderWipeDistance,2
;   primaryExtruder,0
;   layerHeight,0.3
;   topSolidLayers,3
;   bottomSolidLayers,3
;   perimeterOutlines,2
;   printPerimetersInsideOut,1
;   startPointOption,2
;   startPointOriginX,135
;   startPointOriginY,0
;   sequentialIslands,0
;   spiralVaseMode,0
;   firstLayerHeightPercentage,130
;   firstLayerWidthPercentage,130
;   firstLayerUnderspeed,0.4
;   useRaft,0
;   raftExtruder,0
;   raftTopLayers,1
;   raftBaseLayers,1
;   raftOffset,5
;   raftSeparationDistance,0.14
;   raftTopInfill,29
;   aboveRaftSpeedMultiplier,0.3
;   useSkirt,1
;   skirtExtruder,0
;   skirtLayers,1
;   skirtOutlines,2
;   skirtOffset,3
;   usePrimePillar,0
;   primePillarExtruder,999
;   primePillarWidth,12
;   primePillarLocation,7
;   primePillarSpeedMultiplier,1
;   useOozeShield,0
;   oozeShieldExtruder,999
;   oozeShieldOffset,2
;   oozeShieldOutlines,1
;   oozeShieldSidewallShape,0
;   oozeShieldSidewallAngle,30
;   oozeShieldSpeedMultiplier,1
;   infillExtruder,0
;   internalInfillPattern,Rectilinear
;   externalInfillPattern,Rectilinear
;   infillPercentage,20
;   outlineOverlapPercentage,25
;   infillExtrusionWidthPercentage,100
;   minInfillLength,3
;   infillLayerInterval,1
;   internalInfillAngles,45,0,-45,90
;   overlapInternalInfillAngles,0
;   externalInfillAngles,45,0,-45
;   generateSupport,0
;   supportExtruder,0
;   supportInfillPercentage,50
;   supportExtraInflation,0
;   supportBaseLayers,0
;   denseSupportExtruder,0
;   denseSupportLayers,2
;   denseSupportInfillPercentage,50
;   supportLayerInterval,1
;   supportHorizontalPartOffset,0.7
;   supportUpperSeparationLayers,1
;   supportLowerSeparationLayers,1
;   supportType,0
;   supportGridSpacing,2
;   maxOverhangAngle,45
;   supportAngles,0,90
;   temperatureName,Heated Bed,Primary Extruder
;   temperatureNumber,0,0
;   temperatureSetpointCount,1,1
;   temperatureSetpointLayers,1,1
;   temperatureSetpointTemperatures,65,200
;   temperatureStabilizeAtStartup,1,0
;   temperatureHeatedBed,1,0
;   temperatureRelayBetweenLayers,0,0
;   temperatureRelayBetweenLoops,0,0
;   fanLayers,1,2
;   fanSpeeds,0,100
;   blipFanToFullPower,1
;   adjustSpeedForCooling,1
;   minSpeedLayerTime,12
;   minCoolingSpeedSlowdown,20
;   increaseFanForCooling,1
;   minFanLayerTime,12
;   maxCoolingFanSpeed,100
;   increaseFanForBridging,1
;   bridgingFanSpeed,100
;   use5D,1
;   relativeEdistances,0
;   allowEaxisZeroing,1
;   independentExtruderAxes,0
;   includeM10123,0
;   stickySupport,1
;   applyToolheadOffsets,0
;   gcodeXoffset,0
;   gcodeYoffset,0
;   gcodeZoffset,0
;   overrideMachineDefinition,1
;   machineTypeOverride,0
;   strokeXoverride,220
;   strokeYoverride,210
;   strokeZoverride,200
;   originOffsetXoverride,0
;   originOffsetYoverride,0
;   originOffsetZoverride,0
;   homeXdirOverride,-1
;   homeYdirOverride,-1
;   homeZdirOverride,-1
;   flipXoverride,1
;   flipYoverride,-1
;   flipZoverride,1
;   toolheadOffsets,0,0|0,0|0,0|0,0|0,0|0,0
;   overrideFirmwareConfiguration,0
;   firmwareTypeOverride,RepRap (Marlin/Repetier/Sprinter)
;   GPXconfigOverride,r2
;   baudRateOverride,115200
;   overridePrinterModels,0
;   printerModelsOverride
;   startingGcode,M82,M190 S[bed0_temperature] T0,M104 S[extruder0_temperature] T0,,G28 ,G90,G1 Z5 F210,G32 S1,,M109 S[extruder0_temperature] T0,,G92 E0,M120 P20 S25
;   layerChangeGcode,
;   retractionGcode,
;   toolChangeGcode,
;   endingGcode,; Default end code,M106 S0 ; Turn off fan,,M104 S0,M140 S0,,G1 X0 Y210 F4000,,M84,M120 P20 S100
;   exportFileFormat,gcode
;   celebration,0
;   celebrationSong,Star Wars
;   postProcessing,
;   defaultSpeed,4800
;   outlineUnderspeed,0.5
;   solidInfillUnderspeed,0.5
;   supportUnderspeed,0.9
;   rapidXYspeed,6000
;   rapidZspeed,4800
;   minBridgingArea,50
;   bridgingExtraInflation,0
;   bridgingExtrusionMultiplier,1
;   bridgingSpeedMultiplier,1
;   useFixedBridgingAngle,0
;   fixedBridgingAngle,0
;   applyBridgingToPerimeters,0
;   filamentDiameters,1.75|1.75|1.75|1.75|1.75|1.75
;   filamentPricesPerKg,140|140|140|140|140|140
;   filamentDensities,1.24|1.24|1.24|1.24|1.24|1.24
;   useMinPrintHeight,0
;   minPrintHeight,0
;   useMaxPrintHeight,0
;   maxPrintHeight,0
;   useDiaphragm,0
;   diaphragmLayerInterval,20
;   robustSlicing,1
;   mergeAllIntoSolid,0
;   onlyRetractWhenCrossingOutline,1
;   retractBetweenLayers,0
;   useRetractionMinTravel,1
;   retractionMinTravel,3
;   retractWhileWiping,1
;   onlyWipeOutlines,1
;   avoidCrossingOutline,0
;   maxMovementDetourFactor,3
;   toolChangeRetractionDistance,12
;   toolChangeExtraRestartDistance,-0.5
;   toolChangeRetractionSpeed,600
;   externalThinWallType,0
;   internalThinWallType,1
;   thinWallAllowedOverlapPercentage,25
;   singleExtrusionMinLength,1
;   singleExtrusionMinPrintingWidthPercentage,50
;   singleExtrusionMaxPrintingWidthPercentage,200
;   singleExtrusionEndpointExtension,0.2
;   horizontalSizeCompensation,-0.2
G90
M82
M106 S255
G4 P500
M106 S0
M82
M190 S65 T0
M104 S200 T0
G28 
G90
G1 Z5 F210
G32 S1
M109 S200 T0
G92 E0
M120 P20 S25
G92 E0
G1 E-10.0000 F4200
G1 Z0.590 F4800
; process Process1
; layer 1, Z = 0.390
T0
; tool H0.390 W0.624
; skirt
G1 X36.086 Y36.168 F6000
G1 Z0.390 F4800
G1 E0.0000 F1260
G92 E0
G1 X36.092 Y36.162 E0.0007 F1920
G1 X36.143 Y36.110 E0.0073
G1 X36.148 Y36.105 E0.0080
G1 X38.517 Y33.787 E0.3098
G1 X38.523 Y33.781 E0.3106
G1 X38.576 Y33.732 E0.3172
G1 X38.582 Y33.727 E0.3179
G1 X41.049 Y31.514 E0.6197
G1 X41.055 Y31.508 E0.6204
G1 X41.110 Y31.461 E0.6270
G1 X41.116 Y31.456 E0.6277
G1 X43.676 Y29.352 E0.9295
G1 X43.682 Y29.347 E0.9302
G1 X43.739 Y29.302 E0.9368
G1 X43.745 Y29.297 E0.9375
G1 X46.394 Y27.306 E1.2393
G1 X46.401 Y27.301 E1.2400
G1 X46.460 Y27.259 E1.2466
G1 X46.466 Y27.254 E1.2473
G1 X49.198 Y25.379 E1.5491
G1 X49.205 Y25.374 E1.5498
G1 X49.266 Y25.335 E1.5564
G1 X49.272 Y25.330 E1.5571
G1 X52.083 Y23.575 E1.8589
G1 X52.090 Y23.571 E1.8597
G1 X52.152 Y23.534 E1.8663
G1 X52.159 Y23.530 E1.8670
G1 X55.043 Y21.897 E2.1688
G1 X55.050 Y21.893 E2.1695
G1 X55.114 Y21.859 E2.1761
G1 X55.121 Y21.855 E2.1768
G1 X58.073 Y20.349 E2.4786
G1 X58.080 Y20.346 E2.4793
G1 X58.145 Y20.314 E2.4859
G1 X58.153 Y20.311 E2.4866
G1 X61.167 Y18.933 E2.7884
G1 X61.174 Y18.930 E2.7891
G1 X61.241 Y18.902 E2.7957
G1 X61.248 Y18.899 E2.7964
G1 X64.319 Y17.653 E3.0982
G1 X64.326 Y17.650 E3.0989
G1 X64.394 Y17.624 E3.1055
G1 X64.402 Y17.621 E3.1063
G1 X67.524 Y16.509 E3.4081
G1 X67.531 Y16.507 E3.4088
G1 X67.600 Y16.484 E3.4154
G1 X67.608 Y16.482 E3.4161
G1 X70.775 Y15.506 E3.7179
G1 X70.782 Y15.504 E3.7186
G1 X70.852 Y15.484 E3.7252
G1 X70.860 Y15.482 E3.7259
G1 X74.066 Y14.643 E4.0277
G1 X74.074 Y14.642 E4.0284
G1 X74.144 Y14.625 E4.0350
G1 X74.152 Y14.623 E4.0357
G1 X77.392 Y13.924 E4.3375
G1 X77.399 Y13.923 E4.3382
G1 X77.470 Y13.909 E4.3448
G1 X77.478 Y13.908 E4.3455
G1 X80.745 Y13.349 E4.6473
G1 X80.753 Y13.348 E4.6480
G1 X80.824 Y13.338 E4.6546
G1 X80.832 Y13.336 E4.6554
G1 X84.120 Y12.920 E4.9572
G1 X84.128 Y12.919 E4.9579
G1 X84.200 Y12.912 E4.9645
G1 X84.208 Y12.911 E4.9652
G1 X87.511 Y12.637 E5.2670
G1 X87.519 Y12.636 E5.2677
G1 X87.591 Y12.632 E5.2743
G1 X87.599 Y12.631 E5.2750
G1 X90.910 Y12.501 E5.5768
G1 X90.918 Y12.500 E5.5775
G1 X90.991 Y12.499 E5.5841
G1 X90.999 Y12.499 E5.5848
G1 X94.313 Y12.511 E5.8866
G1 X94.321 Y12.511 E5.8873
G1 X94.393 Y12.513 E5.8940
G1 X94.401 Y12.513 E5.8947
G1 X97.712 Y12.669 E6.1964
G1 X97.719 Y12.669 E6.1972
G1 X97.792 Y12.674 E6.2038
G1 X97.799 Y12.675 E6.2045
G1 X101.100 Y12.973 E6.5063
G1 X101.108 Y12.974 E6.5070
G1 X101.180 Y12.982 E6.5136
G1 X101.188 Y12.983 E6.5143
G1 X104.473 Y13.424 E6.8161
G1 X104.480 Y13.425 E6.8168
G1 X104.552 Y13.436 E6.8234
G1 X104.560 Y13.438 E6.8241
G1 X107.823 Y14.020 E7.1259
G1 X107.830 Y14.021 E7.1266
G1 X107.901 Y14.036 E7.1332
G1 X107.909 Y14.037 E7.1339
G1 X111.143 Y14.760 E7.4357
G1 X111.151 Y14.762 E7.4365
G1 X111.222 Y14.779 E7.4431
G1 X111.229 Y14.781 E7.4438
G1 X114.429 Y15.643 E7.7456
G1 X114.437 Y15.645 E7.7463
G1 X114.506 Y15.665 E7.7529
G1 X114.514 Y15.668 E7.7536
G1 X117.674 Y16.667 E8.0554
G1 X117.681 Y16.669 E8.0561
G1 X117.750 Y16.693 E8.0627
G1 X117.757 Y16.695 E8.0634
G1 X120.871 Y17.830 E8.3652
G1 X120.879 Y17.833 E8.3659
G1 X120.946 Y17.859 E8.3725
G1 X120.953 Y17.862 E8.3732
G1 X124.015 Y19.131 E8.6750
G1 X124.022 Y19.134 E8.6757
G1 X124.089 Y19.163 E8.6824
G1 X124.096 Y19.166 E8.6831
G1 X127.100 Y20.566 E8.9849
G1 X127.107 Y20.569 E8.9856
G1 X127.172 Y20.601 E8.9922
G1 X127.179 Y20.605 E8.9929
G1 X130.120 Y22.133 E9.2947
G1 X130.127 Y22.136 E9.2954
G1 X130.191 Y22.171 E9.3020
G1 X130.197 Y22.175 E9.3027
G1 X133.070 Y23.829 E9.6045
G1 X133.076 Y23.833 E9.6052
G1 X133.139 Y23.870 E9.6118
G1 X133.145 Y23.875 E9.6125
G1 X135.943 Y25.651 E9.9143
G1 X135.950 Y25.655 E9.9150
G1 X136.010 Y25.695 E9.9216
G1 X136.017 Y25.700 E9.9223
G1 X138.735 Y27.595 E10.2241
G1 X138.742 Y27.600 E10.2249
G1 X138.800 Y27.643 E10.2315
G1 X138.807 Y27.647 E10.2322
G1 X141.440 Y29.658 E10.5339
G1 X141.447 Y29.663 E10.5347
G1 X141.503 Y29.709 E10.5413
G1 X141.509 Y29.714 E10.5420
G1 X144.054 Y31.837 E10.8438
G1 X144.060 Y31.842 E10.8445
G1 X144.115 Y31.890 E10.8511
G1 X144.121 Y31.895 E10.8518
G1 X146.571 Y34.126 E11.1536
G1 X146.577 Y34.131 E11.1543
G1 X146.630 Y34.181 E11.1609
G1 X146.635 Y34.187 E11.1616
G1 X148.987 Y36.522 E11.4634
G1 X148.993 Y36.527 E11.4641
G1 X149.043 Y36.580 E11.4708
G1 X149.049 Y36.585 E11.4715
G1 X151.297 Y39.020 E11.7733
G1 X151.303 Y39.026 E11.7740
G1 X151.351 Y39.080 E11.7806
G1 X151.356 Y39.086 E11.7813
G1 X153.497 Y41.615 E12.0831
G1 X153.502 Y41.621 E12.0838
G1 X153.548 Y41.678 E12.0904
G1 X153.553 Y41.684 E12.0911
G1 X155.583 Y44.303 E12.3929
G1 X155.588 Y44.310 E12.3936
G1 X155.631 Y44.368 E12.4002
G1 X155.636 Y44.374 E12.4009
G1 X157.551 Y47.079 E12.7027
G1 X157.555 Y47.086 E12.7034
G1 X157.596 Y47.146 E12.7100
G1 X157.600 Y47.152 E12.7107
G1 X159.397 Y49.937 E13.0125
G1 X159.401 Y49.944 E13.0133
G1 X159.439 Y50.006 E13.0199
G1 X159.443 Y50.012 E13.0206
G1 X161.117 Y52.873 E13.3224
G1 X161.121 Y52.879 E13.3231
G1 X161.156 Y52.943 E13.3297
G1 X161.160 Y52.950 E13.3304
G1 X162.709 Y55.879 E13.6322
G1 X162.713 Y55.886 E13.6329
G1 X162.745 Y55.951 E13.6395
G1 X162.749 Y55.958 E13.6402
G1 X164.170 Y58.952 E13.9420
G1 X164.173 Y58.959 E13.9427
G1 X164.203 Y59.026 E13.9493
G1 X164.206 Y59.033 E13.9500
G1 X165.497 Y62.086 E14.2518
G1 X165.500 Y62.093 E14.2526
G1 X165.526 Y62.160 E14.2592
G1 X165.529 Y62.168 E14.2599
G1 X166.686 Y65.273 E14.5617
G1 X166.689 Y65.280 E14.5624
G1 X166.713 Y65.349 E14.5690
G1 X166.715 Y65.356 E14.5697
G1 X167.737 Y68.509 E14.8715
G1 X167.740 Y68.516 E14.8722
G1 X167.761 Y68.586 E14.8788
G1 X167.763 Y68.593 E14.8795
G1 X168.648 Y71.787 E15.1813
G1 X168.650 Y71.795 E15.1820
G1 X168.668 Y71.865 E15.1886
G1 X168.669 Y71.873 E15.1893
G1 X169.415 Y75.102 E15.4911
G1 X169.417 Y75.110 E15.4918
G1 X169.432 Y75.181 E15.4984
G1 X169.433 Y75.188 E15.4992
G1 X170.039 Y78.447 E15.8009
G1 X170.041 Y78.454 E15.8016
G1 X170.052 Y78.526 E15.8082
G1 X170.053 Y78.534 E15.8090
G1 X170.518 Y81.815 E16.1108
G1 X170.519 Y81.823 E16.1115
G1 X170.528 Y81.895 E16.1181
G1 X170.528 Y81.903 E16.1188
G1 X170.851 Y85.201 E16.4206
G1 X170.851 Y85.209 E16.4213
G1 X170.857 Y85.281 E16.4279
G1 X170.857 Y85.289 E16.4286
G1 X171.037 Y88.599 E16.7304
G1 X171.037 Y88.606 E16.7311
G1 X171.039 Y88.679 E16.7377
G1 X171.039 Y88.687 E16.7384
G1 X171.076 Y92.001 E17.0402
G1 X171.076 Y92.009 E17.0409
G1 X171.075 Y92.081 E17.0475
G1 X171.075 Y92.089 E17.0483
G1 X170.967 Y95.402 E17.3501
G1 X170.967 Y95.409 E17.3508
G1 X170.963 Y95.482 E17.3574
G1 X170.963 Y95.490 E17.3581
G1 X170.713 Y98.794 E17.6599
G1 X170.712 Y98.802 E17.6606
G1 X170.705 Y98.874 E17.6672
G1 X170.704 Y98.882 E17.6679
G1 X170.311 Y102.173 E17.9697
G1 X170.310 Y102.181 E17.9704
G1 X170.300 Y102.253 E17.9770
G1 X170.299 Y102.260 E17.9777
G1 X169.764 Y105.531 E18.2795
G1 X169.763 Y105.539 E18.2802
G1 X169.750 Y105.610 E18.2868
G1 X169.748 Y105.618 E18.2875
G1 X169.073 Y108.862 E18.5893
G1 X169.071 Y108.870 E18.5900
G1 X169.055 Y108.941 E18.5966
G1 X169.053 Y108.948 E18.5974
G1 X168.238 Y112.161 E18.8992
G1 X168.236 Y112.168 E18.8999
G1 X168.217 Y112.238 E18.9065
G1 X168.214 Y112.246 E18.9072
G1 X167.256 Y115.437 E19.2106
G1 X167.253 Y115.448 E19.2116
G1 X167.218 Y115.551 E19.2215
G1 X167.214 Y115.562 E19.2226
G1 X166.602 Y117.207 E19.3825
G1 X166.596 Y117.222 E19.3839
G1 X166.540 Y117.355 E19.3970
G1 X166.534 Y117.369 E19.3984
G1 X165.776 Y118.971 E19.5599
G1 X165.769 Y118.985 E19.5613
G1 X165.702 Y119.113 E19.5744
G1 X165.694 Y119.126 E19.5758
G1 X164.801 Y120.658 E19.7373
G1 X164.793 Y120.672 E19.7387
G1 X164.715 Y120.793 E19.7518
G1 X164.706 Y120.806 E19.7532
G1 X163.695 Y122.241 E19.9131
G1 X163.689 Y122.250 E19.9142
G1 X163.624 Y122.337 E19.9240
G1 X163.616 Y122.346 E19.9250
G1 X163.059 Y123.038 E20.0060
G1 X163.057 Y123.041 E20.0063
G1 X163.034 Y123.069 E20.0096
G1 X163.031 Y123.072 E20.0100
G1 X135.849 Y155.383 E23.8549
G1 X136.302 Y155.506 E23.8976
G1 X136.360 Y155.527 E23.9032
G1 X136.979 Y155.814 E23.9653
G1 X137.028 Y155.841 E23.9704
G1 X137.466 Y156.135 E24.0184
G1 X137.510 Y156.170 E24.0236
G1 X138.119 Y156.734 E24.0992
G1 X138.172 Y156.796 E24.1066
G1 X138.601 Y157.427 E24.1761
G1 X138.639 Y157.499 E24.1835
G1 X138.993 Y158.408 E24.2723
G1 X139.012 Y158.478 E24.2789
G1 X139.127 Y159.147 E24.3408
G1 X139.132 Y159.220 E24.3474
G1 X139.108 Y159.962 E24.4150
G1 X139.102 Y160.019 E24.4203
G1 X138.999 Y160.548 E24.4692
G1 X138.984 Y160.603 E24.4745
G1 X138.754 Y161.229 E24.5352
G1 X138.736 Y161.269 E24.5392
G1 X138.550 Y161.634 E24.5765
G1 X138.527 Y161.672 E24.5805
G1 X133.779 Y168.686 E25.3519
G1 X133.770 Y168.699 E25.3533
G1 X133.683 Y168.816 E25.3666
G1 X133.673 Y168.829 E25.3680
G1 X133.352 Y169.225 E25.4144
G1 X133.339 Y169.239 E25.4162
G1 X133.216 Y169.375 E25.4329
G1 X133.203 Y169.389 E25.4347
G1 X132.673 Y169.914 E25.5026
G1 X132.652 Y169.932 E25.5051
G1 X132.457 Y170.098 E25.5284
G1 X132.435 Y170.115 E25.5309
G1 X131.652 Y170.683 E25.6190
G1 X131.626 Y170.701 E25.6219
G1 X131.397 Y170.838 E25.6461
G1 X133.172 Y170.644 E25.8087
G1 X135.418 Y170.300 E26.0156
G1 X137.647 Y169.858 E26.2225
G1 X139.855 Y169.320 E26.4294
G1 X142.037 Y168.686 E26.6364
G1 X144.190 Y167.959 E26.8433
G1 X146.309 Y167.138 E27.0503
G1 X148.390 Y166.226 E27.2571
G1 X150.430 Y165.225 E27.4641
G1 X152.425 Y164.136 E27.6710
G1 X154.370 Y162.961 E27.8779
G1 X156.262 Y161.703 E28.0848
G1 X158.098 Y160.363 E28.2918
G1 X159.874 Y158.946 E28.4987
G1 X161.586 Y157.452 E28.7056
G1 X163.233 Y155.885 E28.9125
G1 X164.809 Y154.249 E29.1194
G1 X166.313 Y152.545 E29.3264
G1 X167.741 Y150.778 E29.5333
G1 X169.092 Y148.950 E29.7402
G1 X170.361 Y147.066 E29.9471
